X:1
T:Open the Windows of Heaven
T:Open the Windows of Heaven
T:Ira Orwig Hoffman
T:Henry Burns Hartzler, 1891
T:Public Domain Courtesy of the Cyber Hymnal™
C:Ira Orwig Hoffman
Z:Public Domain
Z:Courtesy of the Cyber Hymnal™
%%score ( 1 2 ) ( 3 4 )
L:1/8
Q:1/4=95
M:6/8
K:F
V:1 treble 
V:2 treble 
V:3 bass 
V:4 bass 
V:1
 F | [FA]2 [FA] [FB]2 [FB] | [Fc]2 [Cc] !fermata![B,D]2 [DB] | [CA]2 [FA] (AG)[CF] | %4
w: 1.~Come,|Ho- ly Ghost, my|spir- it fill, Till|ev- ery trem- * bling|
w: 2.~Thy|will, O God, be|done in me; At-|tune my will * to|
w: 3.~Then|shall my life make|mel- o- dy, And|tes- ti- fy * to|
w: 4.~Come,|Ho- ly Ghost, come|in! come in! Pos-|sess my ran- * somed|
 [EG]3- [EG]2 F | [FA]2 [FA] [FB]2 [FB] | [Fc]2 [Cc] !fermata![B,D]2 [DB] | [CA]2 [CF] [EG]2 [CE] | %8
w: chord * With|love’s ec- sta- tic|mu- sic thrill, In|full and sweet ac-|
w: Thine, * That|so my life a|song may be Of|har- mo- ny di-|
w: Thee, * Till|o- ther hearts en-|rap- tured be, And|Thy sal- va- tion|
w: soul! * For-|ev- er dwell and|reign with- in, With|love’s su- preme con-|
 [CF]3- [CF]2 z ||"^Refrain" [Fc][Fc][Fc] [Fc][FA][FG] | F3 C2 C | C[CF][FG] [FA][FG]F | %12
w: cord! *||||
w: vine. *||||
w: see. *|O- pen the beau- ti- ful|win- dows of|Heav’n, The best of Thy boun-|
w: trol. *||||
 G3- [EG]2 z | [Fc][Fc][Fc] [Fc][FA][FG] | F2 [FB] !fermata![Fd]2 !fermata![Gd] | %15
w: |||
w: |||
w: ti- bless-|ings send down; Come, let the|Spir- it’s a- noint-|
w: |||
 [Fc][GB][FA] [FA]2 [EG] | F3- F2 |] %17
w: ||
w: ||
w: ing be giv’n, The faith|of *|
w: ||
V:2
 F | x6 | x6 | x3 C2 x | x5 F | x6 | x6 | x6 | x6 || x6 | FCC C2 C | C x3 F x | EEE x3 | x6 | %14
 FF x4 | x6 | F3- F2 |] %17
V:3
 [F,A,] | [F,C]2 [F,C] [D,B,]2 [D,B,] | [A,,F,]2 [A,,F,] !fermata![B,,F,]2 [G,,G,] | %3
 [C,F,]2 [C,C] (CB,)[C,A,] | [C,C]3- [C,C]2 [F,A,] | [F,C]2 [F,C] [D,B,]2 [D,B,] | %6
 [A,,F,]2 [A,,F,] !fermata![B,,F,]2 [G,,G,] | [C,F,]2 [C,A,] [C,C]2 [C,B,] | [F,A,]3- [F,A,]2 z || %9
 [F,A,][F,A,][F,A,] [F,A,][F,C][F,B,] | [F,A,][F,A,][F,A,] [F,A,]2 [F,A,] | %11
 [F,A,][F,A,][F,B,] [F,C][F,B,][F,A,] | [C,C][C,C][C,C] [C,C]2 z | %13
 [F,A,][F,A,][F,A,] [F,A,][F,C][F,B,] | [F,A,][F,A,][D,B,] !fermata![B,,B,]2 !fermata![=B,,^G,] | %15
 [C,A,][C,C][C,C] [C,C]2 [C,B,] | [F,,A,]3- [F,,A,]2 |] %17
V:4
 x | x6 | x6 | x3 C,2 x | x6 | x6 | x6 | x6 | x6 || x6 | x6 | x6 | x6 | x6 | x6 | x6 | x5 |] %17

